svgs/sharp-light/arrow-down-small-big.svg

<svg xmlns="http://www.w3.org/2000/svg" viewBox="0 0 576 512"><!--! Font Awesome Pro 6.6.0 by @fontawesome - https://fontawesome.com License - https://fontawesome.com/license (Commercial License) Copyright 2024 Fonticons, Inc. --><path d="M160 478.6l11.3-11.3 88-88L270.6 368 248 345.4l-11.3 11.3L176 417.4 176 48l0-16-32 0 0 16 0 369.4L83.3 356.7 72 345.4 49.4 368l11.3 11.3 88 88L160 478.6zM352 192l96 0 32 0 0-32 0-96 0-32-32 0-96 0-32 0 0 32 0 96 0 32 32 0zm96-32l-96 0 0-96 96 0 0 96zM320 480l32 0 160 0 32 0 0-32 0-160 0-32-32 0-160 0-32 0 0 32 0 160 0 32zm32-192l160 0 0 160-160 0 0-160z"/></svg>

<svg xmlns="http://www.w3.org/2000/svg" viewBox="0 0 576 512"><!--! Font Awesome Pro 6.4.2 by @fontawesome - https://fontawesome.com License - https://fontawesome.com/license (Commercial License) Copyright 2023 Fonticons, Inc. --><path d="M160 478.6l11.3-11.3 88-88L270.6 368 248 345.4l-11.3 11.3L176 417.4V48 32H144V48 417.4L83.3 356.7 72 345.4 49.4 368l11.3 11.3 88 88L160 478.6zM352 192h96 32V160 64 32H448 352 320V64v96 32h32zm96-32H352V64h96v96zM320 480h32H512h32V448 288 256H512 352 320v32V448v32zm32-192H512V448H352V288z"/></svg>
